svg/fluentui-system-icons/ic_fluent_table_offset_settings_20_regular.svg

<svg width="20" height="20" viewBox="0 0 20 20" fill="none" xmlns="http://www.w3.org/2000/svg">
<path d="M5.5 3C4.11929 3 3 4.11929 3 5.5V14.5C3 15.8807 4.11929 17 5.5 17H9.59971C9.43777 16.6832 9.30564 16.3486 9.20703 16H5.5C4.67157 16 4 15.3284 4 14.5V13H9.20703C9.30564 12.6514 9.43777 12.3168 9.59971 12H8V8H16V9.20703C16.3486 9.30564 16.6832 9.43777 17 9.59971V5.5C17 4.11929 15.8807 3 14.5 3H5.5ZM7 12H4V8H7V12ZM4 7V5.5C4 4.67157 4.67157 4 5.5 4H12V7H4ZM16 5.5V7H13V4H14.5C15.3284 4 16 4.67157 16 5.5ZM12.0667 11.442C12.37 12.5231 11.724 13.642 10.636 13.9199L10.175 14.0377C10.16 14.1896 10.1523 14.3438 10.1523 14.4999C10.1523 14.6875 10.1634 14.8725 10.185 15.0541L10.5346 15.1368C11.654 15.4014 12.32 16.5536 11.9906 17.6557L11.8643 18.0785C12.1215 18.2817 12.4012 18.4559 12.699 18.5964L13.0239 18.2523C13.8138 17.416 15.1445 17.4167 15.9335 18.2538L16.2708 18.6118C16.5632 18.4769 16.8386 18.3095 17.0927 18.1142L16.9365 17.5575C16.6332 16.4764 17.2792 15.3575 18.3672 15.0795L18.8277 14.9619C18.8427 14.81 18.8504 14.6559 18.8504 14.4999C18.8504 14.3121 18.8393 14.127 18.8177 13.9452L18.4687 13.8627C17.3492 13.598 16.6832 12.4459 17.0126 11.3438L17.1388 10.9215C16.8815 10.7182 16.6018 10.5439 16.304 10.4034L15.9793 10.7472C15.1895 11.5835 13.8587 11.5828 13.0698 10.7457L12.7324 10.3877C12.44 10.5226 12.1646 10.6899 11.9105 10.8852L12.0667 11.442ZM14.5014 15.4999C13.9491 15.4999 13.5014 15.0521 13.5014 14.4999C13.5014 13.9476 13.9491 13.4999 14.5014 13.4999C15.0536 13.4999 15.5014 13.9476 15.5014 14.4999C15.5014 15.0521 15.0536 15.4999 14.5014 15.4999Z" fill="#212121"/>
</svg>

<svg xmlns="http://www.w3.org/2000/svg" width="20" height="20"><path d="M5.5 3A2.5 2.5 0 0 0 3 5.5v9A2.5 2.5 0 0 0 5.5 17h4.1a5.465 5.465 0 0 1-.393-1H5.5A1.5 1.5 0 0 1 4 14.5V13h5.207c.099-.349.23-.683.393-1H8V8h8v1.207c.349.099.683.23 1 .393V5.5A2.5 2.5 0 0 0 14.5 3h-9ZM7 12H4V8h3v4ZM4 7V5.5A1.5 1.5 0 0 1 5.5 4H12v3H4Zm12-1.5V7h-3V4h1.5A1.5 1.5 0 0 1 16 5.5Zm-3.933 5.942a2 2 0 0 1-1.431 2.478l-.461.118a4.703 4.703 0 0 0 .01 1.016l.35.083a2 2 0 0 1 1.456 2.519l-.127.422c.257.204.537.378.835.518l.325-.344a2 2 0 0 1 2.91.002l.337.358c.292-.135.568-.302.822-.498l-.157-.556a2 2 0 0 1 1.431-2.479l.46-.117a4.7 4.7 0 0 0-.01-1.017l-.348-.082a2 2 0 0 1-1.456-2.52l.126-.421a4.32 4.32 0 0 0-.835-.519l-.325.344a2 2 0 0 1-2.91-.001l-.337-.358a4.316 4.316 0 0 0-.821.497l.156.557ZM14.5 15.5a1 1 0 1 1 0-2 1 1 0 0 1 0 2Z"/></svg>
